X:12387
T:Old Toasty
S:Gordon Highlanders book 1
C:Angus Lawrie, Strathclyde Police
M:2/4
L:1/16
K:AMix
   a2 |A2A2   c>BA>c|e2c<e  f2e>f|a2a2 f2e>f|a>fe>c B2
   a2 |A2A2   c>BA>c|e2c<e  f2e>f|a2a2 f2e>c|B2A2   A2:|
   f>g|a2a2   f2e>c |e>fa>e f2e>f|a2a2 f2e>f|a>fe>c B2
[1 f>g|a2a2   f2e>c |e>fa>e f2e>f|a2a2 f2e>c|B2A2   A2:|
[2 f>g|A2A2   c>BA>c|e2c<e  f2e>f|a2a2 f2e>c|B2A2   A2||
   a2 |c>cc>B A>AA>c|e2c<e  f2e>f|a2a2 f2e>f|a>fe>c B2
   a2 |c>cc>B A>AA>c|e2c<e  f2e>f|a2a2 f2e>c|B2A2   A2:|
   c>d|e>fe>c a2e2  |f>ga>f e2f>g|a2a2 f2e>f|a>fe>c B2|
[1 c>d|e>fe>c a2e2  |f>ga>f e2f>g|a2a2 f2e>c|B2A2   A2:|
[2 c>d|A2A2   c>BA>c|e2c<e  f2e>f|a2a2 f2e>c|B2A2   A2|]


